svg/fluentui-system-icons/ic_fluent_wifi_settings_20_regular.svg

<svg width="20" height="20" viewBox="0 0 20 20" fill="none" xmlns="http://www.w3.org/2000/svg">
<path d="M17.9641 8.18063C17.6273 7.69268 17.2405 7.22458 16.8311 6.81519C13.0775 3.0616 6.9917 3.0616 3.23812 6.81519C2.84495 7.20835 2.46303 7.67535 2.11657 8.17477C1.95917 8.40166 2.0155 8.71319 2.24239 8.8706C2.46928 9.028 2.78081 8.97167 2.93821 8.74478C3.25239 8.29189 3.59698 7.87054 3.94522 7.5223C7.30829 4.15923 12.7609 4.15923 16.124 7.5223C16.4896 7.88792 16.8379 8.3094 17.1411 8.74865C17.2979 8.97592 17.6093 9.033 17.8366 8.87615C18.0639 8.71929 18.1209 8.4079 17.9641 8.18063ZM7.18276 11.2858C8.22651 10.242 9.7 9.88998 11.0337 10.2296C10.7143 10.4891 10.4247 10.7837 10.1706 11.1076C9.34966 11.0709 8.51671 11.3661 7.88987 11.9929C7.62717 12.2556 7.41436 12.5748 7.25881 12.9303C7.14811 13.1833 6.85329 13.2987 6.60031 13.188C6.34732 13.0773 6.23197 12.7825 6.34267 12.5295C6.5468 12.0629 6.82913 11.6394 7.18276 11.2858ZM14.5954 8.78863C14.6664 8.85962 14.736 8.93291 14.804 9.00826C14.7034 9.00278 14.602 9 14.5 9C14.1403 9 13.7887 9.03453 13.4483 9.10045C11.3082 7.37676 8.16811 7.50852 6.18089 9.49574C5.76752 9.90911 5.43156 10.3741 5.17295 10.8854C5.04831 11.1318 4.74752 11.2305 4.5011 11.1059C4.25469 10.9812 4.15597 10.6804 4.28061 10.434C4.58685 9.82859 4.98523 9.27719 5.47379 8.78863C7.99265 6.26977 12.0765 6.26977 14.5954 8.78863ZM12.0667 11.4422C12.37 12.5233 11.724 13.6423 10.636 13.9202L10.175 14.0379C10.16 14.1899 10.1523 14.3441 10.1523 14.5001C10.1523 14.6878 10.1634 14.8727 10.185 15.0544L10.5346 15.137C11.654 15.4017 12.32 16.5538 11.9906 17.656L11.8643 18.0788C12.1215 18.282 12.4012 18.4562 12.699 18.5967L13.0239 18.2525C13.8138 17.4162 15.1445 17.4169 15.9335 18.2541L16.2708 18.612C16.5632 18.4771 16.8386 18.3098 17.0927 18.1144L16.9365 17.5578C16.6332 16.4766 17.2792 15.3577 18.3672 15.0798L18.8277 14.9621C18.8427 14.8102 18.8504 14.6561 18.8504 14.5001C18.8504 14.3123 18.8393 14.1272 18.8177 13.9455L18.4687 13.863C17.3492 13.5983 16.6832 12.4462 17.0126 11.344L17.1388 10.9217C16.8815 10.7184 16.6018 10.5442 16.304 10.4036L15.9793 10.7474C15.1895 11.5837 13.8587 11.583 13.0698 10.7459L12.7324 10.3879C12.44 10.5228 12.1646 10.6901 11.9105 10.8854L12.0667 11.4422ZM14.5014 15.5001C13.9491 15.5001 13.5014 15.0524 13.5014 14.5001C13.5014 13.9478 13.9491 13.5001 14.5014 13.5001C15.0536 13.5001 15.5014 13.9478 15.5014 14.5001C15.5014 15.0524 15.0536 15.5001 14.5014 15.5001Z" fill="#212121"/>
</svg>

<svg xmlns="http://www.w3.org/2000/svg" width="20" height="20"><path d="M17.964 8.18A9.612 9.612 0 0 0 3.238 6.816a9.94 9.94 0 0 0-1.121 1.36.5.5 0 0 0 .821.57 9.018 9.018 0 0 1 1.007-1.223A8.612 8.612 0 0 1 17.141 8.75a.5.5 0 1 0 .823-.568ZM7.183 11.287a4.031 4.031 0 0 1 3.85-1.056 5.55 5.55 0 0 0-.862.878 3.025 3.025 0 0 0-2.281.885 3.051 3.051 0 0 0-.631.937.5.5 0 1 1-.916-.4 4.04 4.04 0 0 1 .84-1.244Zm7.412-2.497c.071.07.141.144.209.22a5.59 5.59 0 0 0-1.356.091 5.45 5.45 0 0 0-8.275 1.785.5.5 0 0 1-.892-.451A6.45 6.45 0 0 1 14.596 8.79Zm-2.528 2.653a2 2 0 0 1-1.431 2.478l-.461.118a4.706 4.706 0 0 0 .01 1.016l.35.083a2 2 0 0 1 1.456 2.519l-.127.423c.257.203.537.377.835.518l.325-.345a2 2 0 0 1 2.91.002l.337.358c.292-.135.568-.302.822-.498l-.157-.556a2 2 0 0 1 1.431-2.478l.46-.118a4.7 4.7 0 0 0-.01-1.017l-.348-.082a2 2 0 0 1-1.456-2.519l.126-.422a4.326 4.326 0 0 0-.835-.518l-.325.343a2 2 0 0 1-2.91-.001l-.337-.358a4.316 4.316 0 0 0-.821.497l.156.557ZM14.5 15.5a1 1 0 1 1 0-2 1 1 0 0 1 0 2Z"/></svg>
